src/assets/cards/3H.svg

<svg clip-rule="evenodd" fill-rule="evenodd" stroke-linejoin="round" stroke-miterlimit="2" viewBox="0 0 934 1300" xmlns="http://www.w3.org/2000/svg"><g fill="#d40000" fill-rule="nonzero"><path d="m36.19 163.785 10.613-7.665c9.232 14.727 19.531 24.424 35.274 22.756 23.646-1.594 33.43-25.917 28.488-44.257-4.779-16.445-24.361-24.461-39.916-15.68-3.663 2.07-7.903 4.629-7.903 4.629l-5.544-9.032 36.516-42.475h-39.627v17.575h-15.204v-31.511h77.461v10.687s-20.748 21.125-27.622 32.703c16.897.615 30.52 11.127 35.387 27.748 2.86 8.743 1.58 28.752-2.158 37.369-6.222 14.376-23.257 26.03-38.837 26.707-26.129 1.731-40.003-16.257-46.928-29.554z"/><path d="m895.91 1136.21-10.625 7.67c-9.22-14.72-19.518-24.42-35.261-22.76-23.646 1.6-33.431 25.92-28.488 44.27 4.779 16.44 24.36 24.45 39.915 15.67 3.663-2.07 7.903-4.23 7.903-4.23l6.561 8.47-37.533 42.64h39.628v-17.58h15.203v31.52h-77.46v-10.69s20.748-21.13 27.61-32.7c-16.885-.62-30.508-11.12-35.375-27.75-2.86-8.75-1.581-28.75 2.145-37.36 6.234-14.39 23.269-26.04 38.849-26.72 26.117-1.73 40.004 16.26 46.928 29.55z"/><path d="m41.605 253.173c-6.625-14.467-7.334-39.188 12.375-42.533 14.833-1.909 20.875 4.991 22.083 15.591.583 3.096 2.333 3.288 2.875-.241.833-10.875 11.625-17.221 20.042-15.625 23 3.937 21.666 29.283 14.166 46.479-11.375 22.833-23.333 37.241-34.375 60.216-12.666-23.92-27.125-43.354-37.166-63.887z"/><path d="m415.563 120.144c29.792-1.979 45.292 23.446 48.333 43.483 1.792 3.183 2.792 2.288 3.5-.175 1.459-25.725 24.459-46.75 45.792-43.875 34.708.45 55.792 39.063 49.833 71.746-7.208 39.921-28.708 63.962-45 88.721-18.458 25.633-43.25 62.662-51.208 80.483 0 0-25.208-38.35-58-83.454-21.917-30.163-39.458-62.842-41.125-90.983-1.833-32.146 11.333-60.963 47.875-65.946z"/><path d="m415.855 530.235c29.75-1.979 45.291 23.446 48.291 43.484 1.834 3.183 2.792 2.287 3.5-.175 1.459-25.725 24.459-46.75 45.792-43.875 34.708.45 55.792 39.062 49.875 71.741-7.25 39.925-28.75 63.963-45.042 88.721-18.416 25.638-43.208 62.667-51.208 80.488 0 0-25.208-38.35-58-83.454-21.917-30.163-39.458-62.846-41.083-90.984-1.875-32.146 11.333-60.962 47.875-65.946z"/><path d="m820.688 1049.89c-6.583 14.47-7.292 39.19 12.375 42.53 14.875 1.92 20.917-4.99 22.083-15.59.584-3.09 2.375-3.28 2.917.25.833 10.87 11.625 17.21 20 15.62 23.042-3.94 21.708-29.29 14.167-46.48-11.375-22.83-23.334-37.24-34.334-60.218-12.666 23.918-27.125 43.358-37.208 63.888z"/><path d="m415.563 1180.96c29.792 1.98 45.292-23.44 48.333-43.48 1.792-3.19 2.792-2.29 3.5.17 1.459 25.73 24.459 46.75 45.792 43.88 34.708-.45 55.792-39.07 49.833-71.75-7.208-39.92-28.708-63.96-45-88.72-18.458-25.633-43.25-62.662-51.208-80.487 0 0-25.208 38.354-58 83.457-21.917 30.16-39.458 62.84-41.125 90.98-1.833 32.15 11.333 60.97 47.875 65.95z"/></g></svg>

<?xml version="1.0" encoding="UTF-8" standalone="no"?>
<!DOCTYPE svg PUBLIC "-//W3C//DTD SVG 1.1//EN" "http://www.w3.org/Graphics/SVG/1.1/DTD/svg11.dtd">
<svg width="100%" height="100%" viewBox="0 0 934 1300" version="1.1" xmlns="http://www.w3.org/2000/svg" xmlns:xlink="http://www.w3.org/1999/xlink" xml:space="preserve" xmlns:serif="http://www.serif.com/" style="fill-rule:evenodd;clip-rule:evenodd;stroke-linejoin:round;stroke-miterlimit:2;">
    <g id="_3H" serif:id="3H">
        <g id="path7102">
            <path d="M36.19,163.785L46.803,156.12C56.035,170.847 66.334,180.544 82.077,178.876C105.723,177.282 115.507,152.959 110.565,134.619C105.786,118.174 86.204,110.158 70.649,118.939C66.986,121.009 62.746,123.568 62.746,123.568L57.202,114.536L93.718,72.061L54.091,72.061L54.091,89.636L38.887,89.636L38.887,58.125L116.348,58.125L116.348,68.812C116.348,68.812 95.6,89.937 88.726,101.515C105.623,102.13 119.246,112.642 124.113,129.263C126.973,138.006 125.693,158.015 121.955,166.632C115.733,181.008 98.698,192.662 83.118,193.339C56.989,195.07 43.115,177.082 36.19,163.785Z" style="fill:rgb(212,0,0);fill-rule:nonzero;"/>
        </g>
        <g id="path7118">
            <path d="M895.91,1136.21L885.285,1143.88C876.065,1129.16 865.767,1119.46 850.024,1121.12C826.378,1122.72 816.593,1147.04 821.536,1165.39C826.315,1181.83 845.896,1189.84 861.451,1181.06C865.114,1178.99 869.354,1176.83 869.354,1176.83L875.915,1185.3L838.382,1227.94L878.01,1227.94L878.01,1210.36L893.213,1210.36L893.213,1241.88L815.753,1241.88L815.753,1231.19C815.753,1231.19 836.501,1210.06 843.363,1198.49C826.478,1197.87 812.855,1187.37 807.988,1170.74C805.128,1161.99 806.407,1141.99 810.133,1133.38C816.367,1118.99 833.402,1107.34 848.982,1106.66C875.099,1104.93 888.986,1122.92 895.91,1136.21Z" style="fill:rgb(212,0,0);fill-rule:nonzero;"/>
        </g>
        <g id="path8630">
            <path d="M41.605,253.173C34.98,238.706 34.271,213.985 53.98,210.64C68.813,208.731 74.855,215.631 76.063,226.231C76.646,229.327 78.396,229.519 78.938,225.99C79.771,215.115 90.563,208.769 98.98,210.365C121.98,214.302 120.646,239.648 113.146,256.844C101.771,279.677 89.813,294.085 78.771,317.06C66.105,293.14 51.646,273.706 41.605,253.173Z" style="fill:rgb(212,0,0);fill-rule:nonzero;"/>
        </g>
        <g id="path8516">
            <path d="M415.563,120.144C445.355,118.165 460.855,143.59 463.896,163.627C465.688,166.81 466.688,165.915 467.396,163.452C468.855,137.727 491.855,116.702 513.188,119.577C547.896,120.027 568.98,158.64 563.021,191.323C555.813,231.244 534.313,255.285 518.021,280.044C499.563,305.677 474.771,342.706 466.813,360.527C466.813,360.527 441.605,322.177 408.813,277.073C386.896,246.91 369.355,214.231 367.688,186.09C365.855,153.944 379.021,125.127 415.563,120.144Z" style="fill:rgb(212,0,0);fill-rule:nonzero;"/>
        </g>
        <g id="path8518">
            <path d="M415.855,530.235C445.605,528.256 461.146,553.681 464.146,573.719C465.98,576.902 466.938,576.006 467.646,573.544C469.105,547.819 492.105,526.794 513.438,529.669C548.146,530.119 569.23,568.731 563.313,601.41C556.063,641.335 534.563,665.373 518.271,690.131C499.855,715.769 475.063,752.798 467.063,770.619C467.063,770.619 441.855,732.269 409.063,687.165C387.146,657.002 369.605,624.319 367.98,596.181C366.105,564.035 379.313,535.219 415.855,530.235Z" style="fill:rgb(212,0,0);fill-rule:nonzero;"/>
        </g>
        <g id="path8652">
            <path d="M820.688,1049.89C814.105,1064.36 813.396,1089.08 833.063,1092.42C847.938,1094.34 853.98,1087.43 855.146,1076.83C855.73,1073.74 857.521,1073.55 858.063,1077.08C858.896,1087.95 869.688,1094.29 878.063,1092.7C901.105,1088.76 899.771,1063.41 892.23,1046.22C880.855,1023.39 868.896,1008.98 857.896,986.002C845.23,1009.92 830.771,1029.36 820.688,1049.89Z" style="fill:rgb(212,0,0);fill-rule:nonzero;"/>
        </g>
        <g id="path8582">
            <path d="M415.563,1180.96C445.355,1182.94 460.855,1157.52 463.896,1137.48C465.688,1134.29 466.688,1135.19 467.396,1137.65C468.855,1163.38 491.855,1184.4 513.188,1181.53C547.896,1181.08 568.98,1142.46 563.021,1109.78C555.813,1069.86 534.313,1045.82 518.021,1021.06C499.563,995.427 474.771,958.398 466.813,940.573C466.813,940.573 441.605,978.927 408.813,1024.03C386.896,1054.19 369.355,1086.87 367.688,1115.01C365.855,1147.16 379.021,1175.98 415.563,1180.96Z" style="fill:rgb(212,0,0);fill-rule:nonzero;"/>
        </g>
    </g>
</svg>
